X: 229
T: Brant Point (jig)
C: BB 5/06
N: 022171
L: 1/8
M: 6/8
R: jig
Q: 1/4=170
K: D
D | "D"DFA dcd | "D"dfe dAF | "Em"EGB ede | "A7"egf ecA |
"D"DFA dcd | "Em"Bef gfg | "D"afd "G"Bcd | "A"edc "D"d2 :|
A | "Em"Bee gfe | "Bm"fdB "A"ecA | "Em"Bef g2a | "Bm7"baf "A"e2d |
"Em"Bee gfe | "D"fda fga | "Em"bag "D"fdf | "A"edc "D"d2 :|
%%%%%%%%%%%%%%%%%%%%%
